X:1
T:James Gibb editions
T:Alma perchè t'affliggi? - Gorzanis
%%score [ 1 2 3 ]
L:1/8
Q:1/4=108
M:2/2
K:C
V:1 treble nm="Alto" snm="A."
V:2 treble-8 nm="Tenor" snm="T."
V:3 bass nm="Bass" snm="B."
V:1
"^Giacomo Gorzanis\n(1520-79)" A4 A2 A2 | (_B2"^Alma perchè t'affliggi?" A2) G4 | F2 _B2 B2 A2 | %3
w: Al- ma, per-|chè t'af- flig-|gì a tut- te|
w: Cor mio, ti|pre\- * go,|non mi dar do-|
w: Ma tu non|mi co- no-|sci, o don- na~~in-|
 G4 F4 | z2 (F2 F2) F2 | G3- G A4 |[M:2/2] z2 F2 E2 D2 | E2 F2 G2 A2 | G2 F2 E4 | D4 z2 D2 | %10
w: l'ho- re?|Per un in-|gra\- * ta,|per un' in-|gra- ta~~a- ma- ra|co- me fe-|le. *|
w: lo- re:|Hab\- * bi|pie\- * tà,|hab- bi pie-|tà di tan- te|mie que- re-|le! Ahi-|
w: gra- ta,|E te ne|pen- ti- rai,|e te ne|pen- ti- rai for-|si~~u- na fia-|ta! *|
 D4 z2 E2 | E4 z2 F2 | F4 G4 | A4 z2 A2 | _B2 A2 G4 | F4 z2 A2 | G2 E2 F4 | E4 z2 F2 | %18
w: |||mè, don-|na cru- de-|le, Per-|chè non a-|mi, per-|
w: mè, ahi-|mè, ahi-|mè, ahi-||||||
w: ||||||||
 E2 D2 E2 F2 | G2 A2 G2 F2 | E4 D4 :| %21
w: chè non a- mi~~il|tuo ser- vo fe-|de- le?|
w: |||
w: |||
V:2
 f4 f2 f2 | (g2 f4) e2 | f2 g2 g2 f2- | f2 e2 f4 | z2 (d2 c2) d2 | (e f2 e) f4 | %6
w: Al- ma, per-|chè t'af- flig-|gi a tut- te|* l'ho- re?|Per un in-|gra\- * * ta,|
w: Cor mio, ti|pre\- * go,|non mi dar do\-|* lo- re:|Hab\- * bi|pie\- * * tà,|
w: Ma tu non|mi co- no-|sci, o don- na~~in\-|* gra- ta,|E te ne|pen\- * ti- rai,|
[M:2/2][K:treble-8] z2 d2 c2 !courtesy!=B2 | ^c2 d2 e2 f2 | e2 d4 ^c2 | d4 z2 !courtesy!=B2 | %10
w: per un' in-|gra- ta~~a- ma- ra|co- me fe-|le. *|
w: hab- bi pie-|tà di tan- te|mie que- re-|le! Ahi-|
w: e te ne|pen- ti- rai for-|si~~u- na fia-|ta! *|
 B4 z2 c2 | c4 z2 d2 | d4 e4 | f4 z2 f2 | de (f4 e2) | f4 z2 f2 | e2 c2 d4 | ^c4 z2 d2 | %18
w: |||mè, don-|na cru- de\- *|le, Per-|chè non a-|mi, per-|
w: mè, ahi-|mè, ahi-|mè, ahi-||||||
w: ||||||||
 ^c2 B2 c2 d2 | e2 f2 e2 d2- | d2 ^c2 d4 :| %21
w: chè non a- mi~~il|tuo ser- vo fe\-|* de- le?|
w: |||
w: |||
V:3
 D4 D2 D2 | (G,2 D2) C4 | F,2 G,2 G,2 D2 | C4 F,4 | z2 _B,2 A,2 B,2 | C3- C F,4 | %6
w: Al- ma, per-|chè t'af- flig-|gì a tut- te|l'ho- re?|Per un in-|gra- * ta,|
w: Cor mio, ti|pre\- * go,|non mi dar do-|lo- re:|Hab\- * bi|pie- * tà,|
w: Ma tu non|mi co- no-|sci, o don- na~~in-|gra- ta,|E te ne|pen- ti- rai,|
[M:2/2] z2 _B,2 G,2 F,2 | A,2 _B,2 =C2 F,2 | C2 _B,2 A,4 | D,4 z2 G,2 | G,4 z2 C,2 | C,4 z2 _B,2 | %12
w: per un' in-|gra- ta~~a- ma- ra|co- me fe-|le. *|||
w: hab- bi pie-|tà di tan- te|mie que- re-|le! Ahi-|mè, ahi-|mè, ahi-|
w: e te ne|pen- ti- rai for-|si~~u- na fia-|ta! *|||
 _B,4 C4 | F,4 z2 F,2 | G,2 F,2 C4 | F,4 z2 F,2 | C2 A,2 D,4 | A,4 z2 D,2 | A,2 G,2 A,2 D,2 | %19
w: |mè, don-|na cru- de-|le, Per-|chè non a-|mi, per-|chè non a- mi~~il|
w: mè, ahi-|||||||
w: |||||||
 C,2 F,2 C,2 D,2 | A,4 D,4 :| %21
w: tuo ser- vo fe-|de- le?|
w: ||
w: ||

